X:1
T:Title
%%score { ( 1 4 ) | ( 2 3 ) }
L:1/8
Q:1/4=100
M:4/4
K:Eb
V:1 treble nm="Grand Piano"
V:4 treble 
V:2 bass 
V:3 bass 
V:1
 [EG]2 [DF]2 E2 F2 | G2 A2 B4 | [GB]2 G2 F2 E2 | A2 G2 [DF]4 | [EG]2 [DF]2 E2 F2 | %5
w: Carey~Boggess * * *|||||
[M:9/8] G2 A- A B2 e3 |[M:4/4] e2 [Ec]2 [EB]2 [=A,E]2 |[M:3/4] [B,EG]2 [A,DF]2 [G,E]2 |[M:1/4] z2 | %9
w: ||||
[M:4/4] z2 [B,G]2 [CA][Ec] [EBd]>[EAc] |[M:3/4] B4 z2 |[M:1/4] z2 | %12
w: |||
[M:4/4] z2 [B,G]2 [CA][Ec] [EBd]>[EAc] |[M:3/4] B4 z2 |[M:1/4] [B,B]2 | %15
w: |||
[M:4/4][K:bass] z4[K:treble] .[EG]2 z2 |[M:5/4] B4 z2 z4 |[M:4/4] G4 z4 | [A,DF]4 [G,B,E]2 z2 |] %19
w: ||||
V:2
 [E,B,]2 [B,,A,]2 [E,G,]2 [A,B,D]2 | [G,B,E]2 [F,B,D]2 [E,G,E]4 | %2
 [E,E]2 [E,B,E]2 [A,B,D]2 [G,B,]2 | [F,B,D]2 [E,B,E]2 [B,,B,]4 | %4
 [E,B,]2 [B,,A,]2 [E,G,]2 [A,B,D]2 |[M:9/8] [G,B,E]2 [F,B,D]- [F,B,D] B,2 _D3 | %6
[M:4/4] [A,CE]2 [A,,A,]2 [B,,G,]2 C,2 |[M:3/4] B,,2 B,,2 E,2 |[M:1/4][K:treble] B2 | %9
[M:4/4] e6[K:bass] z2 |[M:3/4] E,2 F,2 G,2 |[M:1/4][K:treble] B2 |[M:4/4] e6[K:bass] z2 | %13
[M:3/4] E,2 F,2 G,2 |[M:1/4] B,,2 |[M:4/4] E,B,,G,,B,, E,B,,[E,B,E][F,B,D] | %16
[M:5/4] [G,B,E]2 [G,_D][G,D] [A,CE]4 z2 |[M:4/4] z2 B,,2 B,,B,,B,,B,, | B,,4 E,2 z2 |] %19
V:3
 x8 | x8 | x8 | x8 | x8 |[M:9/8] z3 z [G,E]2- [G,E]3 |[M:4/4] x8 |[M:3/4] x6 | %8
[M:1/4][K:treble] x2 |[M:4/4] z2[K:bass] E,2 A,A, A,>A, |[M:3/4] x6 |[M:1/4][K:treble] x2 | %12
[M:4/4] z2[K:bass] E,2 A,A, A,>A, |[M:3/4] x6 |[M:1/4] x2 |[M:4/4] x8 |[M:5/4] x10 |[M:4/4] x8 | %18
 x8 |] %19
V:4
 x8 | x8 | x8 | x8 | x8 |[M:9/8] x9 |[M:4/4] x8 |[M:3/4] x6 |[M:1/4] x2 |[M:4/4] x8 | %10
[M:3/4] [EG]2 [DA]2 [DB]2 |[M:1/4] x2 |[M:4/4] x8 |[M:3/4] [EG]2 [DA]2 [DB]2 |[M:1/4] x2 | %15
[M:4/4][K:bass] [G,B,E][F,B,D][E,E][K:treble][B,DF] B,-[B,DF]GA |[M:5/4] z2 EE c3 e3 | %17
[M:4/4] z2 [B,E]2 [CEA][B,EG][A,DF][G,E] | x8 |] %19

